!!!COM: Clementi, Muzio
!!!CDT: 1752/01/23/-1832/03/10/
!!!ODT: ~1800///
!!!OTL: Sonata No. 4 in F Major, Op. 36, Mvmt. 3
!!!OPS: Op. 36
!!!ONM: No. 4
!!!OMV: 3. Allgro vivace
**kern	**kern	**dynam
*staff2	*staff1	*staff1/2
*>[A,B,A]	*>[A,B,A]	*>[A,B,A]
*>A	*>A	*>A
*clefG2	*clefG2	*clefG2
*k[b-]	*k[b-]	*k[b-]
*M2/4	*M2/4	*M2/4
*MM120	*MM120	*MM120
4r	(24ff\LL	.
.	24gg\	.
.	24aa\	.
.	24ff\	.
.	24gg\	.
.	24aa\JJ)	.
=1	=1	=1
8f/ 8a/L	8cc\L	.
8f/ 8a/J	8cc\J	.
4r	(24ff\LL	.
.	24gg\	.
.	24aa\	.
.	24ff\	.
.	24gg\	.
.	24aa\JJ)	.
=2	=2	=2
8f/ 8b-/L	8dd\L	.
8f/ 8b-/J	8dd\J	.
4r	24ddd\LL	.
.	24ccc\	.
.	24bb-\	.
.	24aa\	.
.	24gg\	.
.	24ff\JJ	.
*clefF4	*	*
=3	=3	=3
2C\ 2E\ 2G\ 2c\	24ee\LL	.
.	24gg\	.
.	24ff\	.
.	24ee\	.
.	24dd\	.
.	24cc\JJ	.
.	24b-\LL	.
.	24a\	.
.	24g\	.
.	24dd\	.
.	24cc\	.
.	24b-\JJ	.
=4	=4	=4
24F\LL	(8a\L	.
24A\	.	.
24c\	.	.
24F\	8cc\J)	.
24A\	.	.
24c\JJ	.	.
24F\LL	8r	.
24A\	.	.
24c\	.	.
24F\	8ccc\	.
24A\	.	.
24c\JJ	.	.
=5	=5	=5
24F\LL	8aa\L	.
24A\	.	.
24c\	.	.
24F\	8ff\	.
24A\	.	.
24c\JJ	.	.
24F\LL	8dd\	.
24B-\	.	.
24d\	.	.
24F\	8b-\J	.
24B-\	.	.
24d\JJ	.	.
=6	=6	=6
24F\LL	8a\L	.
24A\	.	.
24c\	.	.
24F\	8cc\J	.
24A\	.	.
24c\JJ	.	.
24F\LL	8r	.
24A\	.	.
24c\	.	.
24F\	8ccc\	.
24A\	.	.
24c\JJ	.	.
=7	=7	=7
24F\LL	8aa\L	.
24A\	.	.
24c\	.	.
24F\	8ff\	.
24A\	.	.
24c\JJ	.	.
24F\LL	8dd\	.
24Bn\	.	.
24d\	.	.
24F\	8aa\J	.
24B\	.	.
24d\JJ	.	.
=8	=8	=8
24E\LL	8gg'\	.
24G\	.	.
24c\JJ	.	.
8r	24gg\LL	.
.	24ff\	.
.	24ee\JJ	.
24F\LL	8dd'\	.
24A\	.	.
24d\JJ	.	.
8r	24ff\LL	.
.	24ee\	.
.	24dd\JJ	.
=9	=9	=9
24G\LL	8cc'\	.
24c\	.	.
24e\JJ	.	.
8r	24ee\LL	.
.	24dd\	.
.	24cc\JJ	.
24G\LL	8bn'\	.
24d\	.	.
24f\JJ	.	.
8r	24g/LL	.
.	24a/	.
.	24b/JJ	.
=10	=10	=10
(24c\LL	8cc'\	.
24d\	.	.
24e\	.	.
24c\	8r	.
24d\	.	.
24e\JJ	.	.
8c\)	24cc\LL	.
.	24dd\	.
.	24ee\	.
8r	24cc\	.
.	24dd\	.
.	24ee\JJ	.
=11	=11	=11
8r	24dd\LL	.
.	24ee\	.
.	24ff\	.
*clefG2	*	*
8bn\	24dd\	.
.	24ee\	.
.	24ff\JJ	.
8r	24ee\LL	.
.	24ff\	.
.	24gg\	.
8b-\	24ee\	.
.	24ff\	.
.	24gg\JJ	.
=12	=12	=12
2r	4r	.
.	24ff\LL	.
.	24gg\	.
.	24aa\	.
.	24ff\	.
.	24gg\	.
.	24aa\JJ	.
=13	=13	=13
8f/ 8a/L	8cc\L	.
8f/ 8a/J	8cc\J	.
4r	24ff\LL	.
.	24gg\	.
.	24aa\	.
.	24ff\	.
.	24gg\	.
.	24aa\JJ	.
=14	=14	=14
8f/ 8b-/L	8dd\L	.
8f/ 8b-/J	8dd\J	.
4r	24ddd\LL	.
.	24ccc\	.
.	24bb-\	.
.	24aa\	.
.	24gg\	.
.	24ff\JJ	.
*clefF4	*	*
=15	=15	=15
2C\ 2E\ 2G\ 2c\	24ee\LL	.
.	24gg\	.
.	24ff\	.
.	24ee\	.
.	24dd\	.
.	24cc\JJ	.
.	24b-\LL	.
.	24a\	.
.	24g\	.
.	24dd\	.
.	24cc\	.
.	24b-\JJ	.
=16	=16	=16
24F\LL	(8a\L	.
24A\	.	.
24c\	.	.
24F\	8cc'\J)	.
24A\	.	.
24c\JJ	.	.
24F\LL	8r	.
24A\	.	.
24c\	.	.
24F\	8ccc\	.
24A\	.	.
24c\JJ	.	.
=17	=17	=17
24F\LL	8aa\L	.
24A\	.	.
24c\	.	.
24F\	8ff\	.
24A\	.	.
24c\JJ	.	.
24F\LL	8dd\	.
24B-\	.	.
24d\	.	.
24F\	8b-\J	.
24B-\	.	.
24d\JJ	.	.
=18	=18	=18
24F\LL	8a\L	.
24A\	.	.
24c\	.	.
24F\	8cc\J	.
24A\	.	.
24c\JJ	.	.
24F\LL	8r	.
24A\	.	.
24c\	.	.
24F\	8ccc\	.
24A\	.	.
24c\JJ	.	.
=19	=19	=19
24F\LL	8aa\L	.
24A\	.	.
24c\	.	.
24F\	8ff\	.
24A\	.	.
24c\JJ	.	.
24G\LL	8ee\	.
24B-\	.	.
24e\	.	.
24G\	8ddd\J	.
24B-\	.	.
24e\JJ	.	.
=20	=20	=20
24A\LL	8ccc'\	.
24c\	.	.
24f\JJ	.	.
8r	24ccc\LL	.
.	24bb-\	.
.	24aa\JJ	.
24B-\LL	8gg'\	.
24d\	.	.
24g\JJ	.	.
8r	24bb-\LL	.
.	24aa\	.
.	24gg\JJ	.
*clefG2	*	*
=21	=21	=21
24c/LL	8ff'\L	.
24f/	.	.
24a/	.	.
24c/	8ff\	.
24f/	.	.
24a/JJ	.	.
24c/LL	8aa\	.
24f/	.	.
24a/	.	.
24c/	8gg\J	.
24e/	.	.
24g/JJ	.	.
=22	=22	=22
24f/LL	8r	.
24a/	.	.
24cc/	.	.
24f/	8ff\	p
24a/	.	.
24cc/JJ	.	.
24f/LL	8r	.
24b-/	.	.
24dd/	.	.
24f/	8ff\	.
24b-/	.	.
24dd/JJ	.	.
=23	=23	=23
*M2/4	*M2/4	*M2/4
24f/LL	8r	.
24a/	.	.
24cc/JJ	.	.
8r	24aa\LL	.
.	24gg\	.
.	24ff\JJ	.
8r	24ee\LL	.
.	24dd\	.
.	24cc\	.
*clefF4	*	*
8C\ 8c\	24b-\	f
.	24a\	.
.	24g\JJ	.
=24	=24	=24
24F\LL	8f/L	.
24A\	.	.
24c\	.	.
24F\	8f/J	.
24A\	.	.
24c\JJ	.	.
24F\LL	8r	.
24B-\	.	.
24d\	.	.
24F\	8f/	.
24B-\	.	.
24d\JJ	.	.
=25	=25	=25
24F\LL	8r	.
24A\	.	.
24c\JJ	.	.
8r	24a/LL	.
.	24g/	.
.	24f/JJ	.
8r	24e/LL	.
.	24d/	.
.	24c/	.
8CC/ 8C/	24B-/	.
.	24A/	.
.	24G/JJ	.
=26	=26	=26
24FF/LL	8F/	ff
24AA/	.	.
24C/	.	.
24FF/	8r	.
24AA/	.	.
24C/JJ	.	.
24FF/LL	8A/ 8c/ 8f/	.
24AA/	.	.
24C/	.	.
24FF/	8r	.
24AA/	.	.
24C/JJ	.	.
=27	=27	=27
4FF/	4A/ 4c/ 4f/	.
=	=	=
*>B	*>B	*>B
4r	24aa\LL	.
.	24gg\	.
.	24ff\	.
.	24aa\	.
.	24gg\	.
.	24ff\JJ	.
*clefG2	*	*
=28	=28	=28
24f/LL	8ccc\L	.
24a/	.	.
24cc/	.	.
24f/	8ccc\	.
24a/	.	.
24cc/JJ	.	.
24f/LL	8aa\	.
24a/	.	.
24cc/	.	.
24f/	8ff\J	.
24a/	.	.
24cc/JJ	.	.
=29	=29	=29
24e/LL	8ff#\L	.
24g/	.	.
24cc/	.	.
24e/	8gg\J	.
24g/	.	.
24cc/JJ	.	.
24e/LL	24eee\LL	.
24g/	24ddd\	.
24cc/	24ccc\	.
24e/	24bbn\	.
24g/	24aa\	.
24cc/JJ	24gg\JJ	.
=30	=30	=30
24d/LL	8.gg\L	.
24g/	.	.
24bn/	.	.
24d/	.	.
24g/	.	.
.	32ee\LL	.
24b/JJ	.	.
.	32ff\JJJ	.
24d/LL	8.ff\L	.
24g/	.	.
24b/	.	.
24d/	.	.
24g/	.	.
.	32ee\LL	.
24b/JJ	.	.
.	32ff\JJJ	.
=31	=31	=31
8c/	24ee\LL	.
.	24gg\	.
.	24ff\	.
8r	24ee\	.
.	24dd\	.
.	24cc\JJ	.
*clefF4	*	*
8Bn'\L	24ff\LL	.
.	24aa\	.
.	24gg\	.
8B'\J	24ff\	.
.	24ee\	.
.	24dd\JJ	.
=32	=32	=32
8c'\	24ee\LL	.
.	24gg\	.
.	24ff\	.
8r	24ee\	.
.	24dd\	.
.	24cc\JJ	.
8Bn'\L	24ff\LL	.
.	24aa\	.
.	24gg\	.
8B'\J	24ff\	.
.	24ee\	.
.	24dd\JJ	.
=33	=33	=33
8c'\	24ee\LL	.
.	24gg\	.
.	24ff\	.
8r	24ee\	.
.	24dd\	.
.	24cc\JJ	.
8E'\ 8c'\L	24bb-\LL	f
.	24ddd\	.
.	24ccc\	.
8E'\ 8c'\J	24bb-\	.
.	24aa\	.
.	24gg\JJ	.
=34	=34	=34
8F'\ 8c'\	24aa\LL	.
.	24bbn\	.
.	24ccc\	.
8r	24bb\	.
.	24aa\	.
.	24gg\JJ	.
8F'\L	24ff\LL	.
.	24ee\	.
.	24dd\	.
8F#'\J	24cc\	.
.	24bn\	.
.	24a\JJ	.
=35	=35	=35
24G\LL	8.g\L	.
24c\	.	.
24e\	.	.
24G\	.	.
24c\	.	.
.	32cc\LL	.
24e\JJ	.	.
.	32dd\JJJ	.
24G\LL	8.dd\L	.
24Bn\	.	.
24d\	.	.
24G\	.	.
24B\	.	.
.	32cc\LL	.
24d\JJ	.	.
.	32dd\JJJ	.
=36	=36	=36
8c'\	24ee\LL	.
.	24ff\	.
.	24gg\	.
8r	24cc\	.
.	24dd\	.
.	24ee\JJ	.
24Bn\LL	8ff'\	.
24c\	.	.
24d\	.	.
24G\	8r	.
24A\	.	.
24B\JJ	.	.
=37	=37	=37
8c'\	24ee\LL	.
.	24ff\	.
.	24gg\	.
8r	24cc\	.
.	24dd\	.
.	24ee\JJ	.
24Bn\LL	8ff'\	.
24c\	.	.
24d\	.	.
24G\	8r	.
24A\	.	.
24B\JJ	.	.
=38	=38	=38
8c\L	24ee\LL	.
.	24gg\	.
.	24ee\	.
8E\	24cc\	.
.	24ee\	.
.	24cc\JJ	.
8F\	24a/LL	.
.	24cc/	.
.	24a/	.
8F\J	24f/	.
.	24a/	.
.	24f/JJ	.
=39	=39	=39
8G\L	24e/LL	f
.	24g/	.
.	24f/	.
8G\J	24e/	.
.	24d/	.
.	24c/JJ	.
8GG/L	8.d/L	.
8GG/J	.	.
.	32c/LL	.
.	32d/JJJ	.
=40	=40	=40
8C'/	24e/LL	.
.	24f/	.
.	24g/	.
8r	24c/	.
.	24d/	.
.	24e/JJ	.
24BBn/LL	8f/	.
24C/	.	.
24D/	.	.
24GG/	8r	.
24AA/	.	.
24BB/JJ	.	.
=41	=41	=41
8C'/	24e/LL	.
.	24f/	.
.	24g/	.
8r	24c/	.
.	24d/	.
.	24e/JJ	.
24BBn/LL	8f/	.
24C/	.	.
24D/	.	.
24GG/	8r	.
24AA/	.	.
24BB/JJ	.	.
=42	=42	=42
8C/L	24e/LL	f
.	24g/	.
.	24cc/	.
8CC/ 8C/J	24ee/	.
.	24cc/	.
.	24g/JJ	.
8r	24e/LL	.
.	24a/	.
.	24cc/	.
8AA\ 8A\	24ee/	.
.	24cc/	.
.	24a/JJ	.
=43	=43	=43
8r	24d/LL	.
.	24f/	.
.	24a/	.
8FF/ 8F/	24dd/	.
.	24a/	.
.	24f/JJ	.
8r	24d/LL	.
.	24f/	.
.	24g/	.
8GG/ 8G/	24bn/	.
.	24g/	.
.	24f/JJ	.
=44	=44	=44
8r	24e/LL	ff
.	24g/	.
.	24cc/	.
8C\ 8c\	24ee/	.
.	24cc/	.
.	24g/JJ	.
8r	24e/LL	.
.	24a/	.
.	24cc/	.
8AA\ 8A\	24ee/	.
.	24cc/	.
.	24a/JJ	.
=45	=45	=45
8FF/ 8F/L	24a\LL	.
.	24dd\	.
.	24ff\	.
8FF/ 8F/	24aa\	.
.	24ff\	.
.	24dd\JJ	.
8GG/ 8G/	24g\LL	.
.	24bn\	.
.	24dd\	.
8GG/ 8G/J	24gg\	.
.	24dd\	.
.	24b\JJ	.
=46	=46	=46
2CC/ 2C/	24cc\LL	.
.	24bn\	.
.	24cc\	.
.	24ee\	.
.	24dd\	.
.	24cc\JJ	.
.	24b/LL	.
.	24a/	.
.	24g/	.
.	24f/	.
.	24e/	.
.	24d/JJ	.
=47	=47	=47
2CC/ 2C/	24c/LL	.
.	24Bn/	.
.	24c/	.
.	24e/	.
.	24d/	.
.	24c/JJ	.
*	*clefF4	*clefF4
.	24Bn\LL	.
.	24A\	.
.	24G\	.
.	24F\	.
.	24E\	.
.	24D\JJ	.
=48	=48	=48
8CC/L	8C/L	.
8CC/J	8C/J	.
*	*clefG2	*clefG2
4r	24e/LL	.
.	24d/	.
.	24c/	.
.	24g/	.
.	24f/	.
.	24e/JJ	.
=49	=49	=49
8CC/ 8C/L	8b-\	.
8CC/ 8C/J	8r	.
4r	24ee\LL	.
.	24dd\	.
.	24cc\	.
.	24gg\	.
.	24ff\	.
.	24ee\JJ	.
*clefG2	*	*
=50	=50	=50
8c/ 8e/ 8g/L	8bb-\	.
8c/ 8e/ 8g/J	8r	.
4r;	4r;	.
=51	=51	=51
4r;	4r;	.
==	==	==
*-	*-	*-
!!!ENC: Craig Stuart Sapp
!!!END: 2004/11/26/
